assets/Chains/Flat/chains_flat.svg

<svg xmlns="http://www.w3.org/2000/svg" width="32" height="32" fill="none"><path fill="#9B9B9B" d="M23 2c-2.76 0-5 2.24-5 5v4c0 2.76 2.24 5 5 5-2.76 0-5 2.24-5 5v4c0 2.76 2.24 5 5 5s5-2.24 5-5v-4c0-2.76-2.24-5-5-5 2.76 0 5-2.24 5-5V7c0-2.76-2.24-5-5-5Zm0 3c1.1 0 2 .9 2 2v4c0 1.1-.9 2-2 2s-2-.9-2-2V7c0-1.1.9-2 2-2Zm2 16v4c0 1.1-.9 2-2 2s-2-.9-2-2v-4c0-1.1.9-2 2-2s2 .9 2 2ZM11 2.55v.66c0 .5-.33 1.13-.75 1.4C8.67 5.62 7 4.5 7 3v-.45c0-.3-.24-.54-.54-.54H4.54c-.3 0-.54.24-.54.54v.68c0 1.87 1.1 3.56 2.81 4.3C10.47 9.1 14 6.46 14 3v-.45c0-.3-.24-.54-.54-.54h-1.92c-.3 0-.54.24-.54.54ZM7 29.45v-.66c0-.5.33-1.13.75-1.4C9.33 26.38 11 27.5 11 29v.44c0 .3.24.54.54.54h1.92c.3 0 .54-.24.54-.54v-.68c0-1.87-1.1-3.56-2.81-4.3C7.53 22.9 4 25.54 4 29v.44c0 .3.24.54.54.54h1.92c.3.01.54-.23.54-.53ZM4 14c0-2.76 2.24-5 5-5s5 2.23 5 5v4c0 2.76-2.24 5-5 5s-5-2.24-5-5v-4Zm7 0a2 2 0 1 0-4 0v4c0 1.1.9 2 2 2s2-.9 2-2v-4Z"/><path fill="#BEBEBE" d="M21.5 2.45v3.04c0 .84.69 1.55 1.53 1.53.81-.02 1.47-.69 1.47-1.51V2.45c0-.25-.2-.45-.45-.45h-2.11c-.24 0-.44.2-.44.45ZM9 14c-.83 0-1.5-.67-1.5-1.5v-7C7.5 4.67 8.17 4 9 4s1.5.67 1.5 1.5v7c0 .82-.67 1.5-1.5 1.5ZM9 28c-.83 0-1.5-.67-1.5-1.5v-7c0-.83.67-1.5 1.5-1.5s1.5.67 1.5 1.5v7c0 .82-.67 1.5-1.5 1.5ZM21.5 19.5c0 .83.67 1.5 1.5 1.5s1.5-.67 1.5-1.5v-7c0-.83-.67-1.5-1.5-1.5s-1.5.67-1.5 1.5v7ZM24.5 26.53v3.04c0 .25-.2.44-.44.45h-2.11c-.25 0-.45-.2-.45-.45V26.5c0-.82.65-1.48 1.47-1.5.84-.02 1.53.69 1.53 1.53Z"/></svg>

<svg width="32" height="32" viewBox="0 0 32 32" fill="none" xmlns="http://www.w3.org/2000/svg">
<path d="M23 2C20.24 2 18 4.24 18 7V11C18 13.76 20.24 16 23 16C20.24 16 18 18.24 18 21V25C18 27.76 20.24 30 23 30C25.76 30 28 27.76 28 25V21C28 18.24 25.76 16 23 16C25.76 16 28 13.76 28 11V7C28 4.24 25.76 2 23 2ZM23 5C24.1 5 25 5.9 25 7V11C25 12.1 24.1 13 23 13C21.9 13 21 12.1 21 11V7C21 5.9 21.9 5 23 5ZM25 21V25C25 26.1 24.1 27 23 27C21.9 27 21 26.1 21 25V21C21 19.9 21.9 19 23 19C24.1 19 25 19.9 25 21Z" fill="#9B9B9B"/>
<path d="M11 2.55V3.21C11 3.71 10.67 4.34 10.25 4.61C8.67 5.62 7 4.5 7 3V2.55C7 2.25 6.76 2.01 6.46 2.01H4.54C4.24 2.01 4 2.25 4 2.55V3.23C4 5.1 5.1 6.79 6.81 7.53C10.47 9.1 14 6.46 14 3V2.55C14 2.25 13.76 2.01 13.46 2.01H11.54C11.24 2.01 11 2.25 11 2.55Z" fill="#9B9B9B"/>
<path d="M7 29.45V28.79C7 28.29 7.33 27.66 7.75 27.39C9.33 26.38 11 27.5 11 29V29.44C11 29.74 11.24 29.98 11.54 29.98H13.46C13.76 29.98 14 29.74 14 29.44V28.76C14 26.89 12.9 25.2 11.19 24.46C7.53 22.9 4 25.54 4 29V29.44C4 29.74 4.24 29.98 4.54 29.98H6.46C6.76 29.99 7 29.75 7 29.45Z" fill="#9B9B9B"/>
<path d="M4 14C4 11.24 6.24 9 9 9C11.76 9 14 11.23 14 14V18C14 20.76 11.76 23 9 23C6.24 23 4 20.76 4 18V14ZM11 14C11 12.9 10.1 12 9 12C7.9 12 7 12.89 7 14V18C7 19.1 7.9 20 9 20C10.1 20 11 19.1 11 18V14Z" fill="#9B9B9B"/>
<path d="M21.5 2.45V5.49C21.5 6.33 22.19 7.04 23.03 7.02C23.84 7 24.5 6.33 24.5 5.51V2.45C24.5 2.2 24.3 2 24.05 2H21.94C21.7 2 21.5 2.2 21.5 2.45Z" fill="#BEBEBE"/>
<path d="M9 14C8.17 14 7.5 13.33 7.5 12.5V5.5C7.5 4.67 8.17 4 9 4C9.83 4 10.5 4.67 10.5 5.5V12.5C10.5 13.32 9.83 14 9 14Z" fill="#BEBEBE"/>
<path d="M9 28C8.17 28 7.5 27.33 7.5 26.5V19.5C7.5 18.67 8.17 18 9 18C9.83 18 10.5 18.67 10.5 19.5V26.5C10.5 27.32 9.83 28 9 28Z" fill="#BEBEBE"/>
<path d="M21.5 19.5C21.5 20.33 22.17 21 23 21C23.83 21 24.5 20.33 24.5 19.5V12.5C24.5 11.67 23.83 11 23 11C22.17 11 21.5 11.67 21.5 12.5V19.5Z" fill="#BEBEBE"/>
<path d="M24.5 26.53V29.57C24.5 29.82 24.3 30.01 24.06 30.02H21.95C21.7 30.02 21.5 29.82 21.5 29.57V26.5C21.5 25.68 22.15 25.02 22.97 25C23.81 24.98 24.5 25.69 24.5 26.53Z" fill="#BEBEBE"/>
</svg>
